src/resources/assets/copy.svg

<svg width="16" height="16" fill="none" xmlns="http://www.w3.org/2000/svg"><path d="M4.00029 4.08525L4 10.5C4 11.8255 5.03154 12.91 6.33562 12.9947L6.5 13L10.9144 13.0007C10.7083 13.5829 10.1528 14 9.5 14H6C4.34315 14 3 12.6569 3 11V5.5C3 4.84678 3.41754 4.29109 4.00029 4.08525ZM11.5 2C12.3284 2 13 2.67157 13 3.5V10.5C13 11.3284 12.3284 12 11.5 12H6.5C5.67157 12 5 11.3284 5 10.5V3.5C5 2.67157 5.67157 2 6.5 2H11.5ZM11.5 3H6.5C6.22386 3 6 3.22386 6 3.5V10.5C6 10.7761 6.22386 11 6.5 11H11.5C11.7761 11 12 10.7761 12 10.5V3.5C12 3.22386 11.7761 3 11.5 3Z" fill="#ddd"/></svg>

<svg width="16" height="16" fill="none" xmlns="http://www.w3.org/2000/svg"><path d="M4 4.085V10.5a2.5 2.5 0 002.336 2.495L6.5 13h4.414A1.5 1.5 0 019.5 14H6a3 3 0 01-3-3V5.5a1.5 1.5 0 011-1.415zM11.5 2A1.5 1.5 0 0113 3.5v7a1.5 1.5 0 01-1.5 1.5h-5A1.5 1.5 0 015 10.5v-7A1.5 1.5 0 016.5 2h5zm0 1h-5a.5.5 0 00-.5.5v7a.5.5 0 00.5.5h5a.5.5 0 00.5-.5v-7a.5.5 0 00-.5-.5z" fill="#ddd"/></svg>
